tools/download-figma-icons/icons/outlined-large/local-heat.svg

<svg width="64" height="64" viewBox="0 0 64 64" fill="none" xmlns="http://www.w3.org/2000/svg">
<path d="M11.45 43.3375C10.9 42.8875 10.1 42.8875 9.55 43.3375L0.55 50.6975C0.2 50.9875 0 51.4075 0 51.8575V62.4975C0 63.3275 0.67 63.9975 1.5 63.9975H19.5C20.33 63.9975 21 63.3275 21 62.4975V51.8575C21 51.4075 20.8 50.9775 20.45 50.6975L11.45 43.3375ZM18 60.9975H3V52.5675L10.5 46.4275L18 52.5675V60.9975Z" fill="black"/>
<path d="M32.95 0.3375C32.4 -0.1125 31.6 -0.1125 31.05 0.3375L22.05 7.6975C21.7 7.9875 21.5 8.4075 21.5 8.8575V19.4975C21.5 20.3275 22.17 20.9975 23 20.9975H41C41.83 20.9975 42.5 20.3275 42.5 19.4975V8.8575C42.5 8.4075 42.3 7.9775 41.95 7.6975L32.95 0.3375ZM39.5 17.9975H24.5V9.5675L32 3.4275L39.5 9.5675V17.9975Z" fill="black"/>
<path d="M63.45 50.6975L54.45 43.3375C53.9 42.8875 53.1 42.8875 52.55 43.3375L43.55 50.6975C43.2 50.9875 43 51.4075 43 51.8575V62.4975C43 63.3275 43.67 63.9975 44.5 63.9975H62.5C63.33 63.9975 64 63.3275 64 62.4975V51.8575C64 51.4075 63.8 50.9775 63.45 50.6975ZM61 60.9975H46V52.5675L53.5 46.4275L61 52.5675V60.9975Z" fill="black"/>
<path d="M40.76 41.1973L33.51 36.9673V28.4873C33.51 27.6573 32.84 26.9873 32.01 26.9873C31.18 26.9873 30.51 27.6573 30.51 28.4873V36.9673L23.25 41.1973C22.53 41.6173 22.29 42.5273 22.71 43.2473C22.99 43.7273 23.49 43.9973 24.01 43.9973C24.27 43.9973 24.53 43.9273 24.76 43.7973L32.01 39.5773L39.25 43.7973C39.49 43.9373 39.75 43.9973 40 43.9973C40.52 43.9973 41.02 43.7273 41.3 43.2573C41.72 42.5373 41.48 41.6273 40.76 41.2073V41.1973Z" fill="black"/>
</svg>

<svg width="64" height="64" viewBox="0 0 64 64" fill="none" xmlns="http://www.w3.org/2000/svg"><path d="M11.45 43.337c-.55-.45-1.35-.45-1.9 0l-9 7.36a1.5 1.5 0 0 0-.55 1.16v10.64c0 .83.67 1.5 1.5 1.5h18c.83 0 1.5-.67 1.5-1.5v-10.64c0-.45-.2-.88-.55-1.16l-9-7.36ZM18 60.998H3v-8.43l7.5-6.14 7.5 6.14v8.43ZM32.95.338c-.55-.45-1.35-.45-1.9 0l-9 7.36a1.5 1.5 0 0 0-.55 1.16v10.64c0 .83.67 1.5 1.5 1.5h18c.83 0 1.5-.67 1.5-1.5V8.857c0-.45-.2-.88-.55-1.16l-9-7.36Zm6.55 17.66h-15v-8.43l7.5-6.14 7.5 6.14v8.43Zm23.95 32.699-9-7.36c-.55-.45-1.35-.45-1.9 0l-9 7.36a1.5 1.5 0 0 0-.55 1.16v10.64c0 .83.67 1.5 1.5 1.5h18c.83 0 1.5-.67 1.5-1.5v-10.64c0-.45-.2-.88-.55-1.16ZM61 60.998H46v-8.43l7.5-6.14 7.5 6.14v8.43ZM40.76 41.197l-7.25-4.23v-8.48c0-.83-.67-1.5-1.5-1.5s-1.5.67-1.5 1.5v8.48l-7.26 4.23c-.72.42-.96 1.33-.54 2.05a1.502 1.502 0 0 0 2.05.55l7.25-4.22 7.24 4.22a1.513 1.513 0 0 0 2.05-.54c.42-.72.18-1.63-.54-2.05v-.01Z" fill="currentColor"/></svg>
